!!!SOCIAL_FUNCTION:	songs used in the treatment of the sick
!!!PDT:	1922
!!!OTL: No_54_Song_Used_in_Treatment_of_Sick_(c).krn
!!!REG: Southwest
!!!LANG: Non-Tone
!!!LING_GROUP: Uto-Aztecan
**kern
*staff1
*clefF4
*k[b-e-a-]
*M2/4
16B-\LK
8.F\J
=1
[2B-\
=2
2B-\]
=3
4F\
4E-\
=4
4F\
12E-\L
12E-\
12E-\J
=5
4.E-\
8E-\
=6
2E-\
=7
12G\L
12F\
12F\J
[4F\
=8
4F\]
4E-\
=9
4F\
8E-\L
8E-\J
=10
4F\
12E-\L
12E-\
12E-\J
=11
4.E-\
8E-\
=12
[2E-\
=13
2E-\]
==
*-
